html/assets/images/dynamic/icon8.svg

<svg width="92" height="87" viewBox="0 0 92 87" fill="none" xmlns="http://www.w3.org/2000/svg">
<g id="Group">
<path id="Vector" d="M11.0696 41.2375C4.19861 36.7723 -0.536051 29.6318 3.46724 20.9516C7.47053 12.2714 24.0803 10.7509 31.6635 2.2439C38.5345 10.0773 38.9002 23.0879 32.7606 33.3271C28.6225 40.2174 21.0779 41.1605 17.1516 41.1413" stroke="#00999A" stroke-width="4" stroke-linejoin="round"/>
<path id="Vector_2" d="M41.1908 8.01791C44.328 7.20956 47.5999 6.78613 50.9873 6.78613C72.5243 6.78613 90.0002 24.2428 90.0002 45.799C90.0002 67.3552 72.5435 84.8118 50.9873 84.8118C29.4312 84.8118 11.9745 67.3552 11.9745 45.799C11.9745 33.6736 17.4983 22.8571 26.1785 15.6973" stroke="#00999A" stroke-width="4" stroke-linejoin="round"/>
<path id="Vector_3" d="M90.0003 48.2241H84.2263L80.377 42.4501H76.5277L74.6031 44.3748H68.8291L59.2058 34.7515H45.7332V30.9022C45.7332 26.6487 49.1783 23.2035 53.4318 23.2035H57.2811L61.1304 19.3542H70.7537L74.6031 15.5049" stroke="#00999A" stroke-width="4" stroke-linejoin="round"/>
<path id="Vector_4" d="M61.1304 71.3198H55.3564V57.8472L51.5071 53.9979H43.8085V48.2239L49.5825 42.45H59.2057L68.829 52.0732V63.6212L61.1304 71.3198Z" stroke="#00999A" stroke-width="4" stroke-linejoin="round"/>
</g>
</svg>

<svg width="92" height="87" fill="none" xmlns="http://www.w3.org/2000/svg"><g stroke="#00999A" stroke-width="4" stroke-linejoin="round"><path d="M11.07 41.237C4.199 36.772-.536 29.632 3.467 20.952 7.471 12.272 24.08 10.75 31.664 2.244c6.87 7.833 7.236 20.844 1.097 31.083-4.139 6.89-11.683 7.834-15.61 7.814"/><path d="M41.19 8.018a39.15 39.15 0 019.797-1.232C72.524 6.786 90 24.243 90 45.8c0 21.556-17.457 39.013-39.013 39.013-21.556 0-39.013-17.457-39.013-39.013 0-12.125 5.524-22.942 14.204-30.102"/><path d="M90 48.224h-5.774l-3.849-5.774h-3.85l-1.924 1.925H68.83l-9.623-9.623H45.733v-3.85a7.697 7.697 0 017.699-7.699h3.85l3.848-3.849h9.624l3.85-3.85M61.13 71.32h-5.774V57.847l-3.849-3.85H43.81v-5.773l5.774-5.774h9.623l9.623 9.623v11.548l-7.7 7.699z"/></g></svg>
